!!!OTL: Shier yue changgong ge
!!!ARE: Asia, China,ÿHunan, Lingxian
!! I, 532
!!!SCT: C1464
!!!YEM: Copyright 1995, estate of Helmut Schaffrath.
**kern
*ICvox
*Ivox
*M2/4
*k[b-]
*F:
{8.cc
16a
8a
8cc
=1
8cc
8a
8a
8a
=2
8dd
4.ff
=3
8dd
8ff
8ff
8dd
=4
2cc}
=5
{8.cc
16a
8a
8cc
=6
8a
8cc
8a
8a
=7
8dd
4.ff
=8
8dd
8ff
8ff
8dd
=9
2cc}
=10
{8dd
8dd
[4ff
=11
4.ff]
16dd
16cc
=12
8cc
4.cc
=13
8dd
8ff
8ff
8dd
=14
2cc}
==
!!!AGN: Xiaodiao. Changgong suku
!!!ONB: ESAC (Essen Associative Code) Database: HUANG
!!!AMT: simple duple
!!!AIN: vox
!!!EED: Helmut Schaffrath
!!!EEV: 1.0
*-
!!!ONB: Tied note syntax fixed by Craig Sapp, 2004/05/03/
